X:2
%#Noindex
T:Ave Verum Corpus (Treble viol)
C:William Byrd
L:1/2
M:4/2
I:linebreak $
K:Bb treble 
 G4 | ^F2 A2- | A G ^F G- | G/^F//=E//F G2 | A2 B2 |$ c c d2- | d c B3/B/ | A2 z G- | G F E2 | %9
w: A-|ve~ ve-|* rum~ cor- *|* * * * pus,~|na- tum~|de~ Ma- ri-|* a~ Vir-  gi-|ne:~ Ve-|* re~ pas-|
 D2 z F- | F G A2 |$ A2 z G | B2 A2- | A B G3/G/ | ^F2 z G- | G G A2 |$ G B3/A/ A- | A G A2 | %18
w: sum,~ im-|- mo- la-|tum~ in~|cru- ce|_ pro ho-  mi-|ne,~ Cu-|- ius~ la-|tus~ per-  fo- ra-|-- tum~|
 c2 B A- | A G F3/F/ |$ F F2 F | F2 z G- | G G G2 | G A2 A | B2 A A |$ c3 B- | B A2 B- | %27
w: un- da~ flu-|- xit~ san-  gui-|ne,~ san- gui-|ne:~ E-|* sto~ no-|bis prae- gu-|sta- tum~ in~|mor-  tis|_ ex- a-|
 B A B F | B2 G2 | z G B2 |$ A2 z G | d3 c- | c B2 A/G/ | A A B3/A/ | G2 ^F2 |$ z4 | %36
w: * mi- ne,~ O~|dul- cis,~|O~ pi-|e,~ O~|Je-  su|_ Fi- * *|li~ Ma- ri- -|- ae,~||
 z2 G3/B/ | A G ^F2 | G z z2 |$ A3/c/ B A | A G ^F A- | A/G/ G2 ^F | G2 z D | B2 G2 |$ z G B2 | %45
w: Mi-  se-|re- re~ me-|i,~|mi-  se- re- re~|me - i,~ me-||i,~ O~|dul- cis,~|O~ pi-|
 A2 z G | d3 c- | c B2 A/G/ | A A B3/A/ | G2 ^F2 |$ z4 | z2 G3/B/ | A G ^F2 | G z z2 |$ %54
w: e,~ O~|Je-  su|_ Fi- * *|li~ Ma- ri-  *|* ae,~||Mi-  se-|re- re~ me-|i,~|
 A3/c/ B A | A G ^F A- | A/G/ G2 ^F | G4 | G4 |$ G4-|G4 |] %61
w: mi-  se- re- re~|me- * i,~ me-||i,~|A-|men.|_|

